!!!OTL: 663. Misstrauen.
!!!ARE: Europa, Mitteleuropa, Deutschland, Nieder - Hessen, Rengertshausen
!!!SCT: E0663
!!!TXL: @@DE
!!!YEM: Copyright 1995, estate of Helmut Schaffrath.
**kern	**text
*ICvox	*
*M4/4	*
*met(c)	*
*k[b-]	*
*F:	*
!LO:TX:a:t=Gemäßigt.	!
!LO:TX:a:t=Aus Niederheſſen. (Rengertshauſen 1891.)	!
{4c	Mein
=1	=1
4.f	Schatʒ
8e	der
4f	gieng
4g	ʒum
=2	=2
4.a	Berg
8g	hi-
4f}	-nauf,
{(8f	wein-
8a)	-te
=3	=3
4cc	bit-
4cc	-ter-
4dd	-li-
4dd	-che
=4	=4
(4.cc	Thrä-
8b-)	.
4a}	-nen
{8f	Schatʒ,
8a	ach
=5	=5
2cc	Schatʒ,
2dd	wo
=6	=6
4b-/	willſt
4a	du
4.g}	hin?
{8a	ach
=7	=7
2b-	Schatʒ
2cc	wo
=8	=8
4a	willſt
4g	du
4f}	hin?
{4dd	Sollſt
=9	=9
4cc	bei
4a	mir
2g	blei-
=10	=10
2f	-ben!
4r}	.
==	==
!!!AGN: Liebes - Lied
!!!ONB: ESAC (Essen Associative Code) Database: ERK2
!!!AMT: simple quadruple
!!!AIN: vox
!!!EED: Helmut Schaffrath
!!!EEV: 1.0
!!!GTL: Liebeslieder [Neuere (aus dem 18. bis 19. Jahrh.) - Liebeslust]
!!!URL-scan: https://rosdok.uni-rostock.de/mcrviewer/recordIdentifier/rosdok_ppn745177662/iview2/phys_0468.iview2?x=125.61531768759119&y=1158.3916926335078&scale=0.7029437510502773&rotation=0&layout=singlePageLayout
!!!ENC: Anna Maria Matuszewska
!!!EEV: 2024/12/12
*-	*-
